content/en/docs/ops/deployment/deployment-models/single-net.svg

<svg xmlns="http://www.w3.org/2000/svg" viewBox="0 0 690.27 523.1"><defs><style>.a39cc158-70d0-4148-bc69-3e259ef360e8,.a8393110-aa91-47b4-ab7d-a87f3adc1e3e,.b2ccde91-b73f-4341-8c8e-5ae78d3d5f27,.f8de5de7-4c9b-4264-b8dd-f3fc4689b068,.fa100cf1-8490-4b8b-b36e-6de5a4db08b5{fill:none}.a39cc158-70d0-4148-bc69-3e259ef360e8,.b2ccde91-b73f-4341-8c8e-5ae78d3d5f27,.f8de5de7-4c9b-4264-b8dd-f3fc4689b068{stroke-linejoin:round}.ac50a9fc-f141-4238-bf76-a82cb9b9aa59,.afbdbbc2-f836-4c8f-a9dd-21b32f9c973d{font-family:Roboto-Regular,Roboto}.f8de5de7-4c9b-4264-b8dd-f3fc4689b068{stroke:#666}.a39cc158-70d0-4148-bc69-3e259ef360e8,.f8de5de7-4c9b-4264-b8dd-f3fc4689b068,.fa100cf1-8490-4b8b-b36e-6de5a4db08b5{stroke-width:2px}.afbdbbc2-f836-4c8f-a9dd-21b32f9c973d{font-size:13.67px}.a8cd7bf9-cc77-42f9-b792-05b7e8e972aa{fill:#e6e6e6}.fa513ed9-03b7-4d02-b673-7138d60e1b33{fill:#fff}.b2ccde91-b73f-4341-8c8e-5ae78d3d5f27{stroke:#e905ee;stroke-width:3px}.ac50a9fc-f141-4238-bf76-a82cb9b9aa59{font-size:15.95px}.a11016ee-36ad-409f-a1ff-cdc2593066ec{letter-spacing:.01em}.af484885-3928-44a2-8164-a0e61ac99adb{fill:#757575}.a39cc158-70d0-4148-bc69-3e259ef360e8,.fa100cf1-8490-4b8b-b36e-6de5a4db08b5{stroke:#fff}.fa100cf1-8490-4b8b-b36e-6de5a4db08b5{stroke-linecap:round}.a8393110-aa91-47b4-ab7d-a87f3adc1e3e,.fa100cf1-8490-4b8b-b36e-6de5a4db08b5{stroke-miterlimit:10}.a8393110-aa91-47b4-ab7d-a87f3adc1e3e{stroke:#090;stroke-width:4px}.b5dcf134-3a22-4f4e-bde4-89dbfa83fe1a{fill:#090}</style></defs><g id="a3e9a15e-d9e9-46a3-a29e-a0b0677c43a5" data-name="single-net"><rect x=".5" y="13.7" width="689.27" height="508.9" rx="10" stroke-linejoin="round" stroke="#466bb0" stroke-dasharray="10 10" fill="none"/><text transform="translate(.48 10.27)" font-family="Roboto-Regular,Roboto" font-size="12">Istio Mesh</text><rect class="f8de5de7-4c9b-4264-b8dd-f3fc4689b068" x="16.16" y="36" width="657.92" height="465.84" rx="10"/><text class="afbdbbc2-f836-4c8f-a9dd-21b32f9c973d" transform="translate(37.58 77.93)">Subnet 1</text><rect class="f8de5de7-4c9b-4264-b8dd-f3fc4689b068" x="37.66" y="81.36" width="282.29" height="374.99" rx="10"/><text class="afbdbbc2-f836-4c8f-a9dd-21b32f9c973d" transform="translate(370.3 77.93)">Subnet 2</text><rect class="f8de5de7-4c9b-4264-b8dd-f3fc4689b068" x="370.38" y="81.36" width="282.29" height="374.99" rx="10"/><rect class="a8cd7bf9-cc77-42f9-b792-05b7e8e972aa" x="398.88" y="127.2" width="225.21" height="82.04" rx="3"/><rect class="fa513ed9-03b7-4d02-b673-7138d60e1b33" x="408.73" y="137.45" width="61.53" height="61.53" rx="3"/><path class="b2ccde91-b73f-4341-8c8e-5ae78d3d5f27" d="M454.61 176.94V159.5l-15.11-8.71-15.11 8.71v17.44l15.11 8.71 15.11-8.71z"/><rect class="fa513ed9-03b7-4d02-b673-7138d60e1b33" x="480.52" y="137.45" width="133.32" height="61.53" rx="3"/><text class="ac50a9fc-f141-4238-bf76-a82cb9b9aa59" transform="translate(540.52 173.73)">Se<tspan class="a11016ee-36ad-409f-a1ff-cdc2593066ec" x="17.92" y="0">r</tspan><tspan x="23.45" y="0">vice B</tspan></text><circle class="af484885-3928-44a2-8164-a0e61ac99adb" cx="511.29" cy="168.22" r="20.51"/><path class="a39cc158-70d0-4148-bc69-3e259ef360e8" d="M504 160.8h14.57v14.57H504z"/><path class="fa100cf1-8490-4b8b-b36e-6de5a4db08b5" d="M506.7 160.8v-3.51m4.59 3.51v-3.51m4.58 3.51v-3.51m-9.17 21.86v-3.51m4.59 3.51v-3.51m4.58 3.51v-3.51m-12.01-2.83h-3.5m3.5-4.59h-3.5m3.5-4.59h-3.5m21.86 9.18h-3.51m3.51-4.59h-3.51m3.51-4.59h-3.51"/><rect class="fa513ed9-03b7-4d02-b673-7138d60e1b33" x="508.05" y="164.85" width="6.48" height="6.48" rx="2"/><rect class="a8cd7bf9-cc77-42f9-b792-05b7e8e972aa" x="66.16" y="127.2" width="225.21" height="82.04" rx="3"/><rect class="fa513ed9-03b7-4d02-b673-7138d60e1b33" x="76.01" y="137.45" width="133.32" height="61.53" rx="3"/><text class="ac50a9fc-f141-4238-bf76-a82cb9b9aa59" transform="translate(135.77 173.73)">Se<tspan class="a11016ee-36ad-409f-a1ff-cdc2593066ec" x="17.92" y="0">r</tspan><tspan x="23.45" y="0">vice A</tspan></text><circle class="af484885-3928-44a2-8164-a0e61ac99adb" cx="106.77" cy="168.22" r="20.51"/><path class="a39cc158-70d0-4148-bc69-3e259ef360e8" d="M99.49 160.8h14.57v14.57H99.49z"/><path class="fa100cf1-8490-4b8b-b36e-6de5a4db08b5" d="M102.19 160.8v-3.51m4.58 3.51v-3.51m4.59 3.51v-3.51m-9.17 21.86v-3.51m4.58 3.51v-3.51m4.59 3.51v-3.51m-12.01-2.83h-3.51m3.51-4.59h-3.51m3.51-4.59h-3.51m21.86 9.18h-3.5m3.5-4.59h-3.5m3.5-4.59h-3.5"/><rect class="fa513ed9-03b7-4d02-b673-7138d60e1b33" x="103.54" y="164.85" width="6.48" height="6.48" rx="2"/><rect class="fa513ed9-03b7-4d02-b673-7138d60e1b33" x="219.58" y="137.45" width="61.53" height="61.53" rx="3"/><path class="b2ccde91-b73f-4341-8c8e-5ae78d3d5f27" d="M265.46 176.94V159.5l-15.11-8.71-15.11 8.71v17.44l15.11 8.71 15.11-8.71z"/><rect class="a8cd7bf9-cc77-42f9-b792-05b7e8e972aa" x="398.88" y="316.35" width="225.21" height="82.04" rx="3"/><rect class="fa513ed9-03b7-4d02-b673-7138d60e1b33" x="408.73" y="326.61" width="61.53" height="61.53" rx="3"/><path class="b2ccde91-b73f-4341-8c8e-5ae78d3d5f27" d="M454.61 366.09v-17.44l-15.11-8.71-15.11 8.71v17.44l15.11 8.72 15.11-8.72z"/><rect class="fa513ed9-03b7-4d02-b673-7138d60e1b33" x="480.52" y="326.61" width="133.32" height="61.53" rx="3"/><text class="ac50a9fc-f141-4238-bf76-a82cb9b9aa59" transform="translate(540.28 362.89)">Se<tspan class="a11016ee-36ad-409f-a1ff-cdc2593066ec" x="17.92" y="0">r</tspan><tspan x="23.45" y="0">vice A</tspan></text><circle class="af484885-3928-44a2-8164-a0e61ac99adb" cx="511.29" cy="357.37" r="20.51"/><path class="a39cc158-70d0-4148-bc69-3e259ef360e8" d="M504 349.95h14.57v14.57H504z"/><path class="fa100cf1-8490-4b8b-b36e-6de5a4db08b5" d="M506.7 349.95v-3.51m4.59 3.51v-3.51m4.58 3.51v-3.51m-9.17 21.86v-3.51m4.59 3.51v-3.51m4.58 3.51v-3.51m-12.01-2.83h-3.5m3.5-4.59h-3.5m3.5-4.59h-3.5m21.86 9.18h-3.51m3.51-4.59h-3.51m3.51-4.59h-3.51"/><rect class="fa513ed9-03b7-4d02-b673-7138d60e1b33" x="508.05" y="354" width="6.48" height="6.48" rx="2"/><rect class="a8cd7bf9-cc77-42f9-b792-05b7e8e972aa" x="66.16" y="316.35" width="225.21" height="82.04" rx="3"/><rect class="fa513ed9-03b7-4d02-b673-7138d60e1b33" x="76.01" y="326.61" width="133.32" height="61.53" rx="3"/><text class="ac50a9fc-f141-4238-bf76-a82cb9b9aa59" transform="translate(136.01 362.89)">Se<tspan class="a11016ee-36ad-409f-a1ff-cdc2593066ec" x="17.92" y="0">r</tspan><tspan x="23.45" y="0">vice B</tspan></text><circle class="af484885-3928-44a2-8164-a0e61ac99adb" cx="106.77" cy="357.37" r="20.51"/><path class="a39cc158-70d0-4148-bc69-3e259ef360e8" d="M99.49 349.95h14.57v14.57H99.49z"/><path class="fa100cf1-8490-4b8b-b36e-6de5a4db08b5" d="M102.19 349.95v-3.51m4.58 3.51v-3.51m4.59 3.51v-3.51m-9.17 21.86v-3.51m4.58 3.51v-3.51m4.59 3.51v-3.51m-12.01-2.83h-3.51m3.51-4.59h-3.51m3.51-4.59h-3.51m21.86 9.18h-3.5m3.5-4.59h-3.5m3.5-4.59h-3.5"/><rect class="fa513ed9-03b7-4d02-b673-7138d60e1b33" x="103.54" y="354" width="6.48" height="6.48" rx="2"/><rect class="fa513ed9-03b7-4d02-b673-7138d60e1b33" x="219.58" y="326.61" width="61.53" height="61.53" rx="3"/><path class="b2ccde91-b73f-4341-8c8e-5ae78d3d5f27" d="M265.46 366.09v-17.44l-15.11-8.71-15.11 8.71v17.44l15.11 8.72 15.11-8.72z"/><path class="a8393110-aa91-47b4-ab7d-a87f3adc1e3e" d="M401.56 168.22H288.29"/><path class="b5dcf134-3a22-4f4e-bde4-89dbfa83fe1a" d="M400.1 163.23l8.63 4.99-8.63 4.99v-9.98zm-110.35 0l-8.64 4.99 8.64 4.99v-9.98z"/><path class="a8393110-aa91-47b4-ab7d-a87f3adc1e3e" d="M288.29 357.24h113.27"/><path class="b5dcf134-3a22-4f4e-bde4-89dbfa83fe1a" d="M289.75 362.22l-8.64-4.98 8.64-4.99v9.97zm110.35 0l8.63-4.98-8.63-4.99v9.97z"/><path class="a8393110-aa91-47b4-ab7d-a87f3adc1e3e" d="M250.35 206.16v113.27"/><path class="b5dcf134-3a22-4f4e-bde4-89dbfa83fe1a" d="M245.36 207.62l4.99-8.63 4.98 8.63h-9.97zm0 110.35l4.99 8.64 4.98-8.64h-9.97z"/><path class="a8393110-aa91-47b4-ab7d-a87f3adc1e3e" d="M439.5 203.99v113.27"/><path class="b5dcf134-3a22-4f4e-bde4-89dbfa83fe1a" d="M434.51 205.45l4.99-8.63 4.99 8.63h-9.98zm0 110.35l4.99 8.64 4.99-8.64h-9.98z"/></g><text class="afbdbbc2-f836-4c8f-a9dd-21b32f9c973d" transform="translate(16.16 32.58)" id="fe3e3471-501f-4434-b198-05116dbbb2d4" data-name="cluster-iso">Network</text></svg>

<svg xmlns="http://www.w3.org/2000/svg" viewBox="0 0 690.27 523.1"><defs><style>.a39cc158-70d0-4148-bc69-3e259ef360e8,.a8393110-aa91-47b4-ab7d-a87f3adc1e3e,.b2ccde91-b73f-4341-8c8e-5ae78d3d5f27,.f8de5de7-4c9b-4264-b8dd-f3fc4689b068,.fa100cf1-8490-4b8b-b36e-6de5a4db08b5{fill:none}.a39cc158-70d0-4148-bc69-3e259ef360e8,.b2ccde91-b73f-4341-8c8e-5ae78d3d5f27,.f8de5de7-4c9b-4264-b8dd-f3fc4689b068{stroke-linejoin:round}.ac50a9fc-f141-4238-bf76-a82cb9b9aa59,.afbdbbc2-f836-4c8f-a9dd-21b32f9c973d{font-family:Roboto-Regular,Roboto}.f8de5de7-4c9b-4264-b8dd-f3fc4689b068{stroke:#666}.a39cc158-70d0-4148-bc69-3e259ef360e8,.f8de5de7-4c9b-4264-b8dd-f3fc4689b068,.fa100cf1-8490-4b8b-b36e-6de5a4db08b5{stroke-width:2px}.afbdbbc2-f836-4c8f-a9dd-21b32f9c973d{font-size:13.67px}.a8cd7bf9-cc77-42f9-b792-05b7e8e972aa{fill:#e6e6e6}.fa513ed9-03b7-4d02-b673-7138d60e1b33{fill:#fff}.b2ccde91-b73f-4341-8c8e-5ae78d3d5f27{stroke:#e905ee;stroke-width:3px}.ac50a9fc-f141-4238-bf76-a82cb9b9aa59{font-size:15.95px}.a11016ee-36ad-409f-a1ff-cdc2593066ec{letter-spacing:.01em}.af484885-3928-44a2-8164-a0e61ac99adb{fill:#757575}.a39cc158-70d0-4148-bc69-3e259ef360e8,.fa100cf1-8490-4b8b-b36e-6de5a4db08b5{stroke:#fff}.fa100cf1-8490-4b8b-b36e-6de5a4db08b5{stroke-linecap:round}.a8393110-aa91-47b4-ab7d-a87f3adc1e3e,.fa100cf1-8490-4b8b-b36e-6de5a4db08b5{stroke-miterlimit:10}.a8393110-aa91-47b4-ab7d-a87f3adc1e3e{stroke:#090;stroke-width:4px}.b5dcf134-3a22-4f4e-bde4-89dbfa83fe1a{fill:#090}</style></defs><g id="a3e9a15e-d9e9-46a3-a29e-a0b0677c43a5" data-name="single-net"><rect x=".5" y="13.7" width="689.27" height="508.9" rx="10" stroke-linejoin="round" stroke="#466bb0" stroke-dasharray="10 10" fill="none"/><text transform="translate(.48 10.27)" font-family="Roboto-Regular,Roboto" font-size="12">Istio Mesh</text><rect class="f8de5de7-4c9b-4264-b8dd-f3fc4689b068" x="16.16" y="36" width="657.92" height="465.84" rx="10"/><text class="afbdbbc2-f836-4c8f-a9dd-21b32f9c973d" transform="translate(37.58 77.93)">Subnet 1</text><rect class="f8de5de7-4c9b-4264-b8dd-f3fc4689b068" x="37.66" y="81.36" width="282.29" height="374.99" rx="10"/><text class="afbdbbc2-f836-4c8f-a9dd-21b32f9c973d" transform="translate(370.3 77.93)">Subnet 2</text><rect class="f8de5de7-4c9b-4264-b8dd-f3fc4689b068" x="370.38" y="81.36" width="282.29" height="374.99" rx="10"/><rect class="a8cd7bf9-cc77-42f9-b792-05b7e8e972aa" x="398.88" y="127.2" width="225.21" height="82.04" rx="3"/><rect class="fa513ed9-03b7-4d02-b673-7138d60e1b33" x="408.73" y="137.45" width="61.53" height="61.53" rx="3"/><path class="b2ccde91-b73f-4341-8c8e-5ae78d3d5f27" d="M454.61 176.94V159.5l-15.11-8.71-15.11 8.71v17.44l15.11 8.71 15.11-8.71z"/><rect class="fa513ed9-03b7-4d02-b673-7138d60e1b33" x="480.52" y="137.45" width="133.32" height="61.53" rx="3"/><text class="ac50a9fc-f141-4238-bf76-a82cb9b9aa59" transform="translate(540.52 173.73)">Se<tspan class="a11016ee-36ad-409f-a1ff-cdc2593066ec" x="17.92" y="0">r</tspan><tspan x="23.45" y="0">vice B</tspan></text><circle class="af484885-3928-44a2-8164-a0e61ac99adb" cx="511.29" cy="168.22" r="20.51"/><path class="a39cc158-70d0-4148-bc69-3e259ef360e8" d="M504 160.8h14.57v14.57H504z"/><path class="fa100cf1-8490-4b8b-b36e-6de5a4db08b5" d="M506.7 160.8v-3.51M511.29 160.8v-3.51M515.87 160.8v-3.51M506.7 179.15v-3.51M511.29 179.15v-3.51M515.87 179.15v-3.51M503.86 172.81h-3.5M503.86 168.22h-3.5M503.86 163.63h-3.5M522.22 172.81h-3.51M522.22 168.22h-3.51M522.22 163.63h-3.51"/><rect class="fa513ed9-03b7-4d02-b673-7138d60e1b33" x="508.05" y="164.85" width="6.48" height="6.48" rx="2"/><rect class="a8cd7bf9-cc77-42f9-b792-05b7e8e972aa" x="66.16" y="127.2" width="225.21" height="82.04" rx="3"/><rect class="fa513ed9-03b7-4d02-b673-7138d60e1b33" x="76.01" y="137.45" width="133.32" height="61.53" rx="3"/><text class="ac50a9fc-f141-4238-bf76-a82cb9b9aa59" transform="translate(135.77 173.73)">Se<tspan class="a11016ee-36ad-409f-a1ff-cdc2593066ec" x="17.92" y="0">r</tspan><tspan x="23.45" y="0">vice A</tspan></text><circle class="af484885-3928-44a2-8164-a0e61ac99adb" cx="106.77" cy="168.22" r="20.51"/><path class="a39cc158-70d0-4148-bc69-3e259ef360e8" d="M99.49 160.8h14.57v14.57H99.49z"/><path class="fa100cf1-8490-4b8b-b36e-6de5a4db08b5" d="M102.19 160.8v-3.51M106.77 160.8v-3.51M111.36 160.8v-3.51M102.19 179.15v-3.51M106.77 179.15v-3.51M111.36 179.15v-3.51M99.35 172.81h-3.51M99.35 168.22h-3.51M99.35 163.63h-3.51M117.7 172.81h-3.5M117.7 168.22h-3.5M117.7 163.63h-3.5"/><rect class="fa513ed9-03b7-4d02-b673-7138d60e1b33" x="103.54" y="164.85" width="6.48" height="6.48" rx="2"/><rect class="fa513ed9-03b7-4d02-b673-7138d60e1b33" x="219.58" y="137.45" width="61.53" height="61.53" rx="3"/><path class="b2ccde91-b73f-4341-8c8e-5ae78d3d5f27" d="M265.46 176.94V159.5l-15.11-8.71-15.11 8.71v17.44l15.11 8.71 15.11-8.71z"/><rect class="a8cd7bf9-cc77-42f9-b792-05b7e8e972aa" x="398.88" y="316.35" width="225.21" height="82.04" rx="3"/><rect class="fa513ed9-03b7-4d02-b673-7138d60e1b33" x="408.73" y="326.61" width="61.53" height="61.53" rx="3"/><path class="b2ccde91-b73f-4341-8c8e-5ae78d3d5f27" d="M454.61 366.09v-17.44l-15.11-8.71-15.11 8.71v17.44l15.11 8.72 15.11-8.72z"/><rect class="fa513ed9-03b7-4d02-b673-7138d60e1b33" x="480.52" y="326.61" width="133.32" height="61.53" rx="3"/><text class="ac50a9fc-f141-4238-bf76-a82cb9b9aa59" transform="translate(540.28 362.89)">Se<tspan class="a11016ee-36ad-409f-a1ff-cdc2593066ec" x="17.92" y="0">r</tspan><tspan x="23.45" y="0">vice A</tspan></text><circle class="af484885-3928-44a2-8164-a0e61ac99adb" cx="511.29" cy="357.37" r="20.51"/><path class="a39cc158-70d0-4148-bc69-3e259ef360e8" d="M504 349.95h14.57v14.57H504z"/><path class="fa100cf1-8490-4b8b-b36e-6de5a4db08b5" d="M506.7 349.95v-3.51M511.29 349.95v-3.51M515.87 349.95v-3.51M506.7 368.3v-3.51M511.29 368.3v-3.51M515.87 368.3v-3.51M503.86 361.96h-3.5M503.86 357.37h-3.5M503.86 352.78h-3.5M522.22 361.96h-3.51M522.22 357.37h-3.51M522.22 352.78h-3.51"/><rect class="fa513ed9-03b7-4d02-b673-7138d60e1b33" x="508.05" y="354" width="6.48" height="6.48" rx="2"/><rect class="a8cd7bf9-cc77-42f9-b792-05b7e8e972aa" x="66.16" y="316.35" width="225.21" height="82.04" rx="3"/><rect class="fa513ed9-03b7-4d02-b673-7138d60e1b33" x="76.01" y="326.61" width="133.32" height="61.53" rx="3"/><text class="ac50a9fc-f141-4238-bf76-a82cb9b9aa59" transform="translate(136.01 362.89)">Se<tspan class="a11016ee-36ad-409f-a1ff-cdc2593066ec" x="17.92" y="0">r</tspan><tspan x="23.45" y="0">vice B</tspan></text><circle class="af484885-3928-44a2-8164-a0e61ac99adb" cx="106.77" cy="357.37" r="20.51"/><path class="a39cc158-70d0-4148-bc69-3e259ef360e8" d="M99.49 349.95h14.57v14.57H99.49z"/><path class="fa100cf1-8490-4b8b-b36e-6de5a4db08b5" d="M102.19 349.95v-3.51M106.77 349.95v-3.51M111.36 349.95v-3.51M102.19 368.3v-3.51M106.77 368.3v-3.51M111.36 368.3v-3.51M99.35 361.96h-3.51M99.35 357.37h-3.51M99.35 352.78h-3.51M117.7 361.96h-3.5M117.7 357.37h-3.5M117.7 352.78h-3.5"/><rect class="fa513ed9-03b7-4d02-b673-7138d60e1b33" x="103.54" y="354" width="6.48" height="6.48" rx="2"/><rect class="fa513ed9-03b7-4d02-b673-7138d60e1b33" x="219.58" y="326.61" width="61.53" height="61.53" rx="3"/><path class="b2ccde91-b73f-4341-8c8e-5ae78d3d5f27" d="M265.46 366.09v-17.44l-15.11-8.71-15.11 8.71v17.44l15.11 8.72 15.11-8.72z"/><path class="a8393110-aa91-47b4-ab7d-a87f3adc1e3e" d="M401.56 168.22H288.29"/><path class="b5dcf134-3a22-4f4e-bde4-89dbfa83fe1a" d="M400.1 163.23l8.63 4.99-8.63 4.99v-9.98zM289.75 163.23l-8.64 4.99 8.64 4.99v-9.98z"/><path class="a8393110-aa91-47b4-ab7d-a87f3adc1e3e" d="M288.29 357.24h113.27"/><path class="b5dcf134-3a22-4f4e-bde4-89dbfa83fe1a" d="M289.75 362.22l-8.64-4.98 8.64-4.99v9.97zM400.1 362.22l8.63-4.98-8.63-4.99v9.97z"/><path class="a8393110-aa91-47b4-ab7d-a87f3adc1e3e" d="M250.35 206.16v113.27"/><path class="b5dcf134-3a22-4f4e-bde4-89dbfa83fe1a" d="M245.36 207.62l4.99-8.63 4.98 8.63h-9.97zM245.36 317.97l4.99 8.64 4.98-8.64h-9.97z"/><path class="a8393110-aa91-47b4-ab7d-a87f3adc1e3e" d="M439.5 203.99v113.27"/><path class="b5dcf134-3a22-4f4e-bde4-89dbfa83fe1a" d="M434.51 205.45l4.99-8.63 4.99 8.63h-9.98zM434.51 315.8l4.99 8.64 4.99-8.64h-9.98z"/></g><text class="afbdbbc2-f836-4c8f-a9dd-21b32f9c973d" transform="translate(16.16 32.58)" id="fe3e3471-501f-4434-b198-05116dbbb2d4" data-name="cluster-iso">Network</text></svg>
